static/box.svg

<?xml version="1.0" encoding="utf-8"?><!-- Uploaded to: SVG Repo, www.svgrepo.com, Generator: SVG Repo Mixer Tools -->
<svg width="800px" height="800px" viewBox="0 0 24 24" fill="none" xmlns="http://www.w3.org/2000/svg">
<path fill-rule="evenodd" clip-rule="evenodd" d="M12 1.25C11.3953 1.25 10.8384 1.40029 10.2288 1.65242C9.64008 1.89588 8.95633 2.25471 8.1049 2.70153L6.03739 3.78651C4.99242 4.33487 4.15616 4.77371 3.51047 5.20491C2.84154 5.65164 2.32632 6.12201 1.95112 6.75918C1.57718 7.39421 1.40896 8.08184 1.32829 8.90072C1.24999 9.69558 1.24999 10.6731 1.25 11.9026V12.0974C1.24999 13.3268 1.24999 14.3044 1.32829 15.0993C1.40896 15.9182 1.57718 16.6058 1.95112 17.2408C2.32632 17.878 2.84154 18.3484 3.51047 18.7951C4.15613 19.2263 4.99233 19.6651 6.03723 20.2134L8.10486 21.2985C8.95628 21.7453 9.64008 22.1041 10.2288 22.3476C10.8384 22.5997 11.3953 22.75 12 22.75C12.6047 22.75 13.1616 22.5997 13.7712 22.3476C14.3599 22.1041 15.0437 21.7453 15.8951 21.2985L17.9626 20.2135C19.0076 19.6651 19.8438 19.2263 20.4895 18.7951C21.1585 18.3484 21.6737 17.878 22.0489 17.2408C22.4228 16.6058 22.591 15.9182 22.6717 15.0993C22.75 14.3044 22.75 13.3269 22.75 12.0975V11.9025C22.75 10.6731 22.75 9.69557 22.6717 8.90072C22.591 8.08184 22.4228 7.39421 22.0489 6.75918C21.6737 6.12201 21.1585 5.65164 20.4895 5.20491C19.8438 4.77371 19.0076 4.33487 17.9626 3.7865L15.8951 2.70154C15.0437 2.25472 14.3599 1.89589 13.7712 1.65242C13.1616 1.40029 12.6047 1.25 12 1.25ZM8.7708 4.04608C9.66052 3.57917 10.284 3.2528 10.802 3.03856C11.3062 2.83004 11.6605 2.75 12 2.75C12.3395 2.75 12.6938 2.83004 13.198 3.03856C13.716 3.2528 14.3395 3.57917 15.2292 4.04608L17.2292 5.09563C18.3189 5.66748 19.0845 6.07032 19.6565 6.45232C19.9387 6.64078 20.1604 6.81578 20.3395 6.99174L12 11.1615L3.66054 6.99174C3.83956 6.81578 4.06132 6.64078 4.34352 6.45232C4.91553 6.07032 5.68111 5.66747 6.7708 5.09563L8.7708 4.04608ZM2.93768 8.30736C2.88718 8.52125 2.84901 8.76412 2.82106 9.04778C2.75084 9.7606 2.75 10.6644 2.75 11.9415V12.0585C2.75 13.3356 2.75084 14.2394 2.82106 14.9522C2.88974 15.6494 3.02022 16.1002 3.24367 16.4797C3.46587 16.857 3.78727 17.1762 4.34352 17.5477C4.91553 17.9297 5.68111 18.3325 6.7708 18.9044L8.7708 19.9539C9.66052 20.4208 10.284 20.7472 10.802 20.9614C10.9656 21.0291 11.1134 21.0832 11.25 21.1255V12.4635L2.93768 8.30736ZM12.75 21.1255C12.8866 21.0832 13.0344 21.0291 13.198 20.9614C13.716 20.7472 14.3395 20.4208 15.2292 19.9539L17.2292 18.9044C18.3189 18.3325 19.0845 17.9297 19.6565 17.5477C20.2127 17.1762 20.5341 16.857 20.7563 16.4797C20.9798 16.1002 21.1103 15.6494 21.1789 14.9522C21.2492 14.2394 21.25 13.3356 21.25 12.0585V11.9415C21.25 10.6644 21.2492 9.7606 21.1789 9.04778C21.151 8.76412 21.1128 8.52125 21.0623 8.30736L12.75 12.4635V21.1255Z" fill="#1C274C"/>
</svg>

<svg xmlns="http://www.w3.org/2000/svg" width="800" height="800" fill="none" viewBox="0 0 24 24"><path fill="currentColor" fill-rule="evenodd" d="M12 1.25c-.6 0-1.16.15-1.77.4-.59.25-1.27.6-2.13 1.05L6.04 3.8A30 30 0 0 0 3.5 5.2c-.67.45-1.18.92-1.56 1.56a5 5 0 0 0-.62 2.14c-.08.8-.08 1.77-.08 3v.2c0 1.23 0 2.2.08 3 .08.82.25 1.5.62 2.14.38.64.9 1.1 1.56 1.56.65.43 1.48.87 2.53 1.41L8.1 21.3c.86.45 1.54.8 2.13 1.05q.88.39 1.77.4c.6 0 1.16-.15 1.77-.4.59-.25 1.27-.6 2.13-1.05l2.06-1.09c1.05-.54 1.88-.98 2.53-1.41a5 5 0 0 0 1.56-1.56c.37-.63.54-1.32.62-2.14.08-.8.08-1.77.08-3v-.2c0-1.23 0-2.2-.08-3a5 5 0 0 0-.62-2.14 5 5 0 0 0-1.56-1.56 30 30 0 0 0-2.53-1.41L15.9 2.7c-.86-.45-1.54-.8-2.13-1.05a5 5 0 0 0-1.77-.4m-3.23 2.8c.9-.47 1.51-.8 2.03-1.01.5-.21.86-.29 1.2-.29s.7.08 1.2.29c.52.21 1.14.54 2.03 1l2 1.06c1.09.57 1.85.97 2.43 1.35q.41.3.68.54L12 11.16 3.66 7q.27-.25.68-.54c.58-.38 1.34-.78 2.43-1.35zM2.94 8.3q-.08.31-.12.74c-.07.71-.07 1.61-.07 2.9v.1c0 1.29 0 2.19.07 2.9.07.7.2 1.15.42 1.53.23.38.55.7 1.1 1.07.58.38 1.34.78 2.43 1.35l2 1.05c.9.47 1.51.8 2.03 1.01l.45.17v-8.67zm9.81 12.82.45-.17a27 27 0 0 0 2.03-1l2-1.06c1.09-.57 1.85-.97 2.43-1.35.55-.37.87-.7 1.1-1.07.22-.38.35-.83.42-1.53s.07-1.61.07-2.9v-.1c0-1.29 0-2.19-.07-2.9a6 6 0 0 0-.12-.74l-8.31 4.15z" clip-rule="evenodd"/></svg>
